X:237
T:Edradynate Medley
R:Country Dances
B:The Athole Collection
M:2/4
L:1/8
K:F
c|ff e/f/a/f/|cca>g|ff/e/ f/g/a/b/|g/f/g/a/ gc|ff e/f/a/f/|cca>g|
ff/g/ e/f/g/a/|faf:|
^f|gg/^f/ gc'|egce|dfBd|c/B/c/d/ c/d/e/f/|gg/^f/ gc'|egce|dfBd|c3||
A|dd/^c/ d/e/f/g/|aa ab/g/|aa/f/ dd/f/|ea A/=B/c/A/|dd/^c/ d/e/f/g/|
aa ab/g/|aa/f/ gg/e/|dfd||

